X:8
T:The Heiress
R:reel
C:Simon Fraser
D:Highland Classic, Carl MacKenzie, 2007
B:Joseph Lowe Collection (1840s)
S:http://www.cranfordpub.com/recordings/carl.htm
Z:psc -  http://www.cranfordpub.com
L:1/8
Q:333
M:C|
K:Bdor
F|(D/E/F) FB ABFd|BFFE DB,B,E|(D/E/F) FB ABFB|AEED CA,A,E|
(D/E/F) FB ABFd|BFFE DB,B,E|(D/E/F) Fd cABg|aefd cAA||
||a|bBBc defa|bffe dBBa|bBBc defg|aefd cAAa|
bBBc defa|bffe dBBc|defa bgaf|geae cAA|]
